packages/synapse-interface/assets/chains/arbitrum.svg

<svg fill="none" height="48" viewBox="0 0 48 48" width="48" xmlns="http://www.w3.org/2000/svg"><path d="m29.7876 21.9938 3.5218-5.9813 9.5013 14.7991v2.8444l-.0311-19.5431c-.0113-.2356-.079-.4652-.1975-.6692s-.2843-.3766-.4834-.5032l-17.0987-9.84535c-.2043-.09681-.4278-.1465-.654-.14543-.2261.00108-.4492.0529-.6526.15165-.0527.02651-.1038.05619-.1529.08889l-.0596.03734-16.60441 9.6222-.064.0294c-.08608.0395-.16822.0871-.24533.1422-.17792.1273-.32521.2927-.43115.4842-.10594.1914-.16788.4041-.1813.6224l.02578 15.9263 8.85071-13.7174c1.1137-1.8186 3.5422-2.4053 5.7955-2.3724l2.6453.0693-15.58662 24.9947 1.83733 1.0578 15.77159-26.0267 6.9715-.0258-15.7333 26.6827 6.5547 3.7715.7831.4498c.3379.1343.7131.1416 1.056.0205l17.3466-10.0525-3.3164 1.9218zm1.3449 19.3707-6.6231-10.392 4.0418-6.8587 8.696 13.7058z" fill="#2d374b"/><path d="m24.5111 30.9698 6.6213 10.392 6.1165-3.5449-8.6978-13.7031z" fill="#28a0f0"/><path d="m42.8187 33.6506v-2.8444l-9.5014-14.7991-3.5253 5.9813 9.1724 14.8347 3.3165-1.9218c.1603-.1298.2914-.2918.385-.4756.0936-.1837.1474-.3851.1581-.5911z" fill="#28a0f0"/><path d="m3.0026 36.3298 4.68355 2.6987 15.58485-24.9938-2.6453-.0694c-2.2533-.032-4.6818.5538-5.7955 2.3734l-8.85071 13.7173-2.97778 4.5751v1.7005z" fill="#fff"/><path d="m32.2667 14.0338-6.9716.0258-15.77154 26.0258 5.51114 3.1742 1.4986-2.5422z" fill="#fff"/><path d="m45.7564 13.9982c-.0322-.7194-.2388-1.4201-.6019-2.042-.3631-.6218-.8719-1.1461-1.4825-1.5278l-17.3333-9.966181c-.6187-.303933-1.2988-.46197486-1.988-.46197486-.6893 0-1.3694.15804186-1.988.46197486-.1449.072889-16.85336 9.763581-16.85336 9.763581-.71744.3445-1.32898.8757-1.77048 1.5378-.4415.6622-.69671 1.431-.73886 2.2257v20.6382l2.97778-4.5751-.02578-15.9262c.00379-.0578.01091-.1154.02133-.1724.06765-.3771.28012-.7127.592-.9351.07912-.056 17.07287-9.89337 17.12707-9.92004.2035-.09875.4265-.15057.6527-.15165.2261-.00107.4496.04862.654.14543l17.1076 9.84626c.1991.1266.3648.2991.4833.5032.1185.204.1863.4335.1976.6692v19.7244c-.0048.2039-.0527.4045-.1409.5884-.0881.1839-.2143.3469-.3703.4783l-3.3164 1.9218-1.7111.992-6.1165 3.5449-6.2026 3.5973c-.3429.1212-.7181.1139-1.056-.0204l-7.3387-4.2214-1.4995 2.5423 6.5955 3.7973.5716.3235c.2471.1387.4151.2312.4746.2596.5519.2419 1.1486.3645 1.7511.36.5527.0008 1.1006-.1023 1.6152-.304l18.016-10.432c.5082-.3954.9235-.8975 1.2167-1.4708s.4571-1.2039.4801-1.8474z" fill="#96bedc"/></svg>

<svg width="48" height="48" viewBox="0 0 48 48" fill="none" xmlns="http://www.w3.org/2000/svg">
<path d="M29.7876 21.9938L33.3094 16.0125L42.8107 30.8116V33.656L42.7796 14.1129C42.7683 13.8773 42.7006 13.6477 42.5821 13.4437C42.4636 13.2397 42.2978 13.0671 42.0987 12.9405L25 3.09515C24.7957 2.99834 24.5722 2.94865 24.346 2.94972C24.1199 2.9508 23.8968 3.00262 23.6934 3.10137C23.6407 3.12788 23.5896 3.15756 23.5405 3.19026L23.4809 3.2276L6.87649 12.8498L6.81249 12.8792C6.72641 12.9187 6.64427 12.9663 6.56716 13.0214C6.38924 13.1487 6.24195 13.3141 6.13601 13.5056C6.03007 13.697 5.96813 13.9097 5.95471 14.128L5.98049 30.0543L14.8312 16.3369C15.9449 14.5183 18.3734 13.9316 20.6267 13.9645L23.272 14.0338L7.68538 39.0285L9.52271 40.0863L25.2943 14.0596L32.2658 14.0338L16.5325 40.7165L23.0872 44.488L23.8703 44.9378C24.2082 45.0721 24.5834 45.0794 24.9263 44.9583L42.2729 34.9058L38.9565 36.8276L29.7876 21.9938ZM31.1325 41.3645L24.5094 30.9725L28.5512 24.1138L37.2472 37.8196L31.1325 41.3645Z" fill="#2D374B"/>
<path d="M24.5111 30.9698L31.1324 41.3618L37.2489 37.8169L28.5511 24.1138L24.5111 30.9698Z" fill="#28A0F0"/>
<path d="M42.8187 33.6506V30.8062L33.3173 16.0071L29.792 21.9884L38.9644 36.8231L42.2809 34.9013C42.4412 34.7715 42.5723 34.6095 42.6659 34.4257C42.7595 34.242 42.8133 34.0406 42.824 33.8346L42.8187 33.6506Z" fill="#28A0F0"/>
<path d="M3.0026 36.3298L7.68615 39.0285L23.271 14.0347L20.6257 13.9653C18.3724 13.9333 15.9439 14.5191 14.8302 16.3387L5.97949 30.056L3.00171 34.6311V36.3316L3.0026 36.3298Z" fill="white"/>
<path d="M32.2667 14.0338L25.2951 14.0596L9.52356 40.0854L15.0347 43.2596L16.5333 40.7174L32.2667 14.0338Z" fill="white"/>
<path d="M45.7564 13.9982C45.7242 13.2788 45.5176 12.5781 45.1545 11.9562C44.7914 11.3344 44.2826 10.8101 43.672 10.4284L26.3387 0.462219C25.72 0.158286 25.0399 0.000244141 24.3507 0.000244141C23.6614 0.000244141 22.9813 0.158286 22.3627 0.462219C22.2178 0.535108 5.50934 10.2258 5.50934 10.2258C4.7919 10.5703 4.18036 11.1015 3.73886 11.7636C3.29736 12.4258 3.04215 13.1946 3 13.9893V34.6275L5.97778 30.0524L5.952 14.1262C5.95579 14.0684 5.96291 14.0108 5.97333 13.9538C6.04098 13.5767 6.25345 13.2411 6.56533 13.0187C6.64445 12.9627 23.6382 3.12533 23.6924 3.09866C23.8959 2.99991 24.1189 2.94809 24.3451 2.94701C24.5712 2.94594 24.7947 2.99563 24.9991 3.09244L42.1067 12.9387C42.3058 13.0653 42.4715 13.2378 42.59 13.4419C42.7085 13.6459 42.7763 13.8754 42.7876 14.1111V33.8355C42.7828 34.0394 42.7349 34.24 42.6467 34.4239C42.5586 34.6078 42.4324 34.7708 42.2764 34.9022L38.96 36.824L37.2489 37.816L31.1324 41.3609L24.9298 44.9582C24.5869 45.0794 24.2117 45.0721 23.8738 44.9378L16.5351 40.7164L15.0356 43.2587L21.6311 47.056L22.2027 47.3795C22.4498 47.5182 22.6178 47.6107 22.6773 47.6391C23.2292 47.881 23.8259 48.0036 24.4284 47.9991C24.9811 47.9999 25.529 47.8968 26.0436 47.6951L44.0596 37.2631C44.5678 36.8677 44.9831 36.3656 45.2763 35.7923C45.5695 35.219 45.7334 34.5884 45.7564 33.9449V13.9982Z" fill="#96BEDC"/>
</svg>
